!!!!SEGMENT: pl-cz--ii-188--006_orllowski-michall--missa-ex-g-quoniam.krn
!!!cenid: 17xx:1010
!!!COM: Orłowski, Michał
!!!COM-rismID:
!!!CDT: ~1700-~1799
!!!CNT:
!!!OPR: Missa ex G
!!!OTL: Quoniam
!!!OMV: 006
!!!PDT:
!!!AGN: Sacred; Mass
!!!SMS-siglum: PL-CZ
!!!SMS-shelfmark: II-188
!!!SMS-shelfwork: 001-006 M
!!!SMS-variant:
!!!SMS-altvar:
!!!NIFC-rismSourceID: 300000944
!!!NIFC-islandoraID: pl-cz:32769
!!!URL-pdf-islandora: https://repozytorium.nifc.pl/islandora/object/pl-cz%3A32769/datastream/PDF/view
!!!URL-scan:
!!!ONB-nifc: UWAGA: części Mszy: Kyrie, Gloria, Laudamus, Domine deus, Qui tollis, Quoniam, Cum santo, Patrem, Et incarnaus, Et resurrexit, Sanctus, Benedictus, Agnus dei. UWAGA: w niektórych głosach części zapisane w innej kolejności
!!!AIN: 1 bass 2 cor 1 organ 2 soprn 2 violn
!!!key: G
**kern	**dynam	**kern	**dynam	**kern	**dynam	**kern	**text	**kern	**kern	**kern	**kern
*group4	*	*group3	*	*group3	*	*group2	*	*group2	*group2	*group1	*group1
*part8	*part8	*part7	*part7	*part6	*part6	*part5	*part5	*part4	*part3	*part2	*part1
*staff8	*	*staff7	*	*staff6	*	*staff5	*staff5	*staff4	*staff3	*staff2	*staff1
*I"Fundamento.	*	*I"Violino Secundo.	*	*I"Violino Primo.	*	*I"Baſso.	*	*I"Canto 2do:	*I"Canto Imo:	*I"Cornu 2do. in G.	*I"Cornu Imo. in G.
*I'[Org]	*	*I'[Vl 2]	*	*I'[Vl 1]	*	*I'[B]	*	*I'[S 2]	*I'[S 1]	*I'[Cor 2 in G]	*I'[Cor 1 in G]
*Iorgan	*	*Ivioln	*	*Ivioln	*	*Ibass	*	*Isoprn	*Isoprn	*Icor	*Icor
*ICklav	*	*ICstr	*	*ICstr	*	*ICvox	*	*ICvox	*ICvox	*ICbras	*ICbras
*IGacmp	*	*IGacmp	*	*IGacmp	*	*IGcoro	*	*IGcoro	*IGcoro	*IGacmp	*IGacmp
*clefF4	*	*clefG2	*	*clefG2	*	*clefF4	*	*clefC1	*clefC1	*clefG2	*clefG2
*	*	*	*	*	*	*	*	*	*	*ITrd3c5	*ITrd3c5
*k[]	*	*k[]	*	*k[]	*	*k[]	*	*k[]	*k[]	*k[f#]	*k[f#]
*G:	*	*G:	*	*G:	*	*G:	*	*G:	*G:	*G:	*G:
*M2/4	*	*M2/4	*	*M2/4	*	*M2/4	*	*M2/4	*M2/4	*M2/4	*M2/4
=1	=1	=1	=1	=1	=1	=1	=1	=1	=1	=1	=1
*	*	*tremolo	*	*tremolo	*	*	*	*	*	*	*
*2\right	*	*2\right	*	*2\right	*	*	*	*	*	*2\right	*2\right
!!mixed beam:problem
!LO:TX:t=P:problem=all\right&colon; global	!	!LO:TX:t=P:problem=all\right&colon; global	!	!LO:TX:t=P:problem=all\right&colon; global	!	!LO:TX:t=P:problem=all\right&colon; global	!	!	!	!LO:TX:t=P:problem=all\right&colon; global	!LO:TX:t=P:problem=all\right&colon; global
!LO:TX:t=P:problem=mixed beam	!	!LO:TX:a:t=Quoniam	!	!LO:TX:a:t=Quoniam	!	!	!	!	!	!	!LO:TX:a:t=Quoniam
!	!	!LO:TX:a:t=Moderato	!	!LO:TX:a:t=Moderato	!	!LO:TX:a:t=Mod&colon; Solo	!	!LO:TX:a:t=Quoniam Tacet	!LO:TX:a:t=Quoniam Tacett.	!	!LO:TX:a:t=Moderato.
8C/L	.	16c/LL	.	16c/LL	.	0r	.	2ryy	2ryy	8.G/L	8.g\L
.	.	16c/	.	16c/	.	.	.	.	.	.	.
8c\	.	16c/	.	16c/	.	.	.	.	.	.	.
.	.	16c/	.	16c/	.	.	.	.	.	16G/Jk	16g\Jk
8G\	.	16c/	.	16c/	.	.	.	.	.	8G/L	8g\L
.	.	16c/	.	16c/	.	.	.	.	.	.	.
8E\J	.	16c/	.	16c/	.	.	.	.	.	8G/J	8g\J
.	.	16c/JJ	.	16c/JJ	.	.	.	.	.	.	.
=2	=2	=2	=2	=2	=2	=2-	=2	=2	=2	=2	=2
!!mixed beam:problem
!LO:TX:t=P:problem=mixed beam	!	!	!	!	!	!	!	!	!	!	!
8C/L	.	16c/LL	.	16e/LL	.	.	.	2ryy	2ryy	4.G/	4.g\
.	.	16c/	.	16e/	.	.	.	.	.	.	.
8c\	.	16c/	.	16e/	.	.	.	.	.	.	.
.	.	16c/	.	16e/	.	.	.	.	.	.	.
8G\	.	16c/	.	16e/	.	.	.	.	.	.	.
.	.	16c/	.	16e/	.	.	.	.	.	.	.
8E\J	.	16c/	.	16e/	.	.	.	.	.	8G/	8g\
.	.	16c/JJ	.	16e/JJ	.	.	.	.	.	.	.
*	*	*Xtremolo	*	*Xtremolo	*	*	*	*	*	*	*
=3	=3	=3	=3	=3	=3	=3-	=3	=3	=3	=3	=3
8C/L	.	8g/L	.	8g/L	.	.	.	2ryy	2ryy	4G/	4g\
16F/L	.	16f/L	.	16f/L	.	.	.	.	.	.	.
16E/JJ	.	16e/JJ	.	16e/JJ	.	.	.	.	.	.	.
16F\LL	.	16f/LL	.	16f/LL	.	.	.	.	.	4r	4r
16G\	.	16g/	.	16g/	.	.	.	.	.	.	.
16A\	.	16a/	.	16a/	.	.	.	.	.	.	.
16B\JJ	.	16b/JJ	.	16b/JJ	.	.	.	.	.	.	.
=4	=4	=4	=4	=4	=4	=4-	=4	=4	=4	=4	=4
!!mixed beam:problem
!LO:TX:t=P:problem=mixed beam	!	!LO:TX:t=P:problem=mixed beam	!	!LO:TX:t=P:problem=mixed beam	!	!	!	!	!	!	!
8c\L	.	8cc\L	.	8cc\L	.	.	.	2ryy	2ryy	8r	8r
8C/J	.	8c/J	.	8c/J	.	.	.	.	.	8G/	8g\L
4r	.	8r	.	8r	.	.	.	.	.	4G/	8g\J
.	.	8cc\	.	8ee\	.	.	.	.	.	.	8r
=5	=5	=5	=5	=5	=5	=5-	=5	=5	=5	=5	=5
*tremolo	*	*tremolo	*	*	*	*	*	*	*	*	*
8GG/L	.	8b\L	.	8dd\L	.	0r	.	2ryy	2ryy	2g\	2b\
8GG/	.	8b\	.	8b\	.	.	.	.	.	.	.
8GG/	.	8b\	.	8g\	.	.	.	.	.	.	.
8GG/J	.	8b\J	.	8dd\J	.	.	.	.	.	.	.
=6	=6	=6	=6	=6	=6	=6-	=6	=6	=6	=6	=6
!!mixed beam:problem
!	!	!	!	!LO:TX:t=P:problem=mixed beam	!	!	!	!	!	!	!
8D\L	.	8a/L	.	8cc\L	.	.	.	2ryy	2ryy	2d/	2a\
8D\	.	8a/	.	8a\	.	.	.	.	.	.	.
8D\	.	8a/	.	8d/	.	.	.	.	.	.	.
8D\J	.	8a/J	.	8cc/J	.	.	.	.	.	.	.
*Xtremolo	*	*Xtremolo	*	*	*	*	*	*	*	*	*
=7	=7	=7	=7	=7	=7	=7-	=7	=7	=7	=7	=7
4G\	.	8g/L	.	8b\L	.	.	.	2ryy	2ryy	4g\	4b\
.	.	8a/	.	8cc\	.	.	.	.	.	.	.
8r	.	8b/	.	8dd\	.	.	.	.	.	4r	4r
8c\	.	8cc/J	.	8ee\J	.	.	.	.	.	.	.
!	!	!	!	!LO:LB:g=original	!	!	!	!	!	!	!
=8	=8	=8	=8	=8	=8	=8-	=8	=8	=8	=8	=8
8d\L	.	8Bt>/L	.	8gT>/L	.	.	.	2ryy	2ryy	8r	8r
8A\J	.	8A/J	.	8f#X/J	.	.	.	.	.	16d/LL	16a\LL
.	.	.	.	.	.	.	.	.	.	16d/JJ	16a\JJ
!	!	!LO:LB:g=original	!	!	!	!	!	!	!	!	!
4D/	.	8r	.	8r	.	.	.	.	.	4d/	4a\
.	.	8d/	.	8d/	.	.	.	.	.	.	.
!LO:LB:g=original	!	!	!	!	!	!	!	!	!	!	!LO:LB:g=original
=9	=9	=9	=9	=9	=9	=9-	=9	=9	=9	=9	=9
8r	.	8a/L	.	8cc/L	.	0r	.	2ryy	2ryy	8r	8r
8D\L	.	8f#X/J	.	8a/J	.	.	.	.	.	8d/	8a\
8F#X\	.	8r	.	8r	.	.	.	.	.	4d/	4a\
8D\J	.	8d/	.	8d/	.	.	.	.	.	.	.
=10	=10	=10	=10	=10	=10	=10-	=10	=10	=10	=10	=10
8r	.	8b/L	.	8dd\L	.	.	.	2ryy	2ryy	8r	8r
8G\L	.	8g/J	.	8b\J	.	.	.	.	.	8g\	8b\
8B\	.	8r	.	8r	.	.	.	.	.	4g\	4b\
8G\J	.	8d/	.	8d/	.	.	.	.	.	.	.
!	!	!	!	!	!	!	!	!	!	!LO:LB:g=original	!
=11	=11	=11	=11	=11	=11	=11-	=11	=11	=11	=11	=11
8r	.	8a/L	.	8cc/L	.	.	.	2ryy	2ryy	8r	8r
8D\L	.	8f#X/J	.	8a/J	.	.	.	.	.	8d/	8a\
8F#X\	.	8r	.	8r	.	.	.	.	.	4d/	4a\
8D\J	.	8d/	.	8d/	.	.	.	.	.	.	.
=12	=12	=12	=12	=12	=12	=12-	=12	=12	=12	=12	=12
8r	.	8b/L	.	8dd\L	.	.	.	2ryy	2ryy	8r	8r
8G\L	.	8g/J	.	8b\J	.	.	.	.	.	8g\	8b\
8B\	.	8r	.	8r	.	.	.	.	.	4g\	4b\
8G\J	.	8b\	.	8dd\	.	.	.	.	.	.	.
=13	=13	=13	=13	=13	=13	=13-	=13	=13	=13	=13	=13
!!mixed beam:problem
!LO:TX:t=P:problem=mixed beam	!	!	!	!	!	!	!	!	!	!	!
.	.	16qqdd/	.	16qqff/	.	.	.	.	.	.	.
8c\L	.	8cc\L	.	8ee\L	.	0r	.	2ryy	2ryy	4r	4r
8A\	.	16b\L	.	16dd\L	.	.	.	.	.	.	.
.	.	16a\JJ	.	16cc\JJ	.	.	.	.	.	.	.
!!mixed beam:problem
!	!	!	!	!	!	!	!	!	!	!LO:TX:t=P:problem=mixed beam	!
8d\	.	8g/L	.	8b/L	.	.	.	.	.	8g\L	8b\L
!	!	!LO:SIC:s=8f#	!	!	!	!	!	!	!	!	!
8D/J	.	8fT>/J	.	8aT>/J	.	.	.	.	.	8d/J	8a\J
=14	=14	=14	=14	=14	=14	=14-	=14	=14	=14	=14	=14
8G\L	.	4g/	.	4g/	.	.	.	2ryy	2ryy	4B/	4g\
16G\L	.	.	.	.	.	.	.	.	.	.	.
16Fn\JJ	.	.	.	.	.	.	.	.	.	.	.
8E\L	.	4r	.	4r	.	.	.	.	.	4r	4r
8D\J	.	.	.	.	.	.	.	.	.	.	.
=15	=15	=15	=15	=15	=15	=15-	=15	=15	=15	=15	=15
*tremolo	*	*tremolo	*	*	*	*	*	*	*	*	*
8C/L	.	8e/L	.	4.cc\	.	.	.	2ryy	2ryy	0r	0r
8C/	.	8e/	.	.	.	.	.	.	.	.	.
8C/	.	8e/	.	.	.	.	.	.	.	.	.
8C/J	.	8e/J	.	8ee\	.	.	.	.	.	.	.
=16	=16	=16	=16	=16	=16	=16-	=16	=16	=16	=16-	=16-
8C/L	.	8e/L	.	4.gg\	.	.	.	2ryy	2ryy	.	.
8C/	.	8e/	.	.	.	.	.	.	.	.	.
8C/	.	8e/	.	.	.	.	.	.	.	.	.
8C/J	.	8e/J	.	8b-X/	.	.	.	.	.	.	.
*	*	*Xtremolo	*	*	*	*	*	*	*	*	*
!	!	!	!	!LO:LB:g=original	!	!	!	!	!	!	!
=17	=17	=17	=17	=17	=17	=17-	=17	=17	=17	=17-	=17-
8C/L	.	8g/L	.	8b-X/L	.	0r	.	2ryy	2ryy	.	.
8C/	.	8fn/	.	8a/	.	.	.	.	.	.	.
8C/	.	8e/	.	8g/	.	.	.	.	.	.	.
8C/J	.	8f/J	.	8a/J	.	.	.	.	.	.	.
*Xtremolo	*	*	*	*	*	*	*	*	*	*	*
=18	=18	=18	=18	=18	=18	=18-	=18	=18	=18	=18-	=18-
8F\L	.	4f/	.	4a/	.	.	.	2ryy	2ryy	.	.
16F\L	.	.	.	.	.	.	.	.	.	.	.
16G\JJ	.	.	.	.	.	.	.	.	.	.	.
8A\L	.	4r	.	8r	.	.	.	.	.	.	.
8F\J	.	.	.	8a/	.	.	.	.	.	.	.
!LO:LB:g=original	!	!LO:LB:g=original	!	!	!	!	!	!	!	!	!
=19	=19	=19	=19	=19	=19	=19-	=19	=19	=19	=19-	=19-
*	*	*^	*	*	*	*	*	*	*	*	*
*tremolo	*	*tremolo	*tremolo	*	*	*	*	*	*	*	*	*
8D\L	.	8a/L	8f#X\L	.	4.dd\	.	.	.	2ryy	2ryy	0r	0r
8D\	.	8a/	8f#X\	.	.	.	.	.	.	.	.	.
8D\	.	8a/	8f#X\	.	.	.	.	.	.	.	.	.
8D\J	.	8a/J	8f#X\J	.	8ff#X\	.	.	.	.	.	.	.
=20	=20	=20	=20	=20	=20	=20-	=20	=20	=20	=20	=20-	=20-
*	*	*	*tremolo	*	*	*	*	*	*	*	*	*
!	!	!LO:SIC:s=2f#	!	!	!	!	!	!	!	!	!	!
8D\L	.	8a/L	8f\L	.	4.aa\	.	.	.	2ryy	2ryy	.	.
8D\	.	8a/	8f\	.	.	.	.	.	.	.	.	.
8D\	.	8a/	8f\	.	.	.	.	.	.	.	.	.
8D\J	.	8a/J	8f\J	.	8cc\	.	.	.	.	.	.	.
*	*	*Xtremolo	*Xtremolo	*	*	*	*	*	*	*	*	*
*	*	*v	*v	*	*	*	*	*	*	*	*	*
=21	=21	=21	=21	=21	=21	=21-	=21	=21	=21	=21-	=21-
8D\L	.	8a/L	.	8cc/L	.	0r	.	2ryy	2ryy	.	.
8D\	.	8g/	.	8b/	.	.	.	.	.	.	.
8D\	.	8f#X/	.	8a/	.	.	.	.	.	.	.
8D\J	.	8g/J	.	8b/J	.	.	.	.	.	.	.
*Xtremolo	*	*	*	*	*	*	*	*	*	*	*
=22	=22	=22	=22	=22	=22	=22-	=22	=22	=22	=22-	=22-
8G\L	.	4g/	.	4b/	.	.	.	2ryy	2ryy	.	.
16G\L	.	.	.	.	.	.	.	.	.	.	.
16A\JJ	.	.	.	.	.	.	.	.	.	.	.
8B\L	.	8r	.	8r	.	.	.	.	.	.	.
8G\J	.	8e/	.	8g/	.	.	.	.	.	.	.
=23	=23	=23	=23	=23	=23	=23-	=23	=23	=23	=23	=23
!!mixed beam:problem
!LO:TX:t=P:problem=mixed beam	!	!	!	!	!	!	!	!	!	!	!
8c\L	.	8e\L	.	8cc\L	.	.	.	2ryy	2ryy	[>2G/	2a\
8C/	.	8cc\	.	8ee\	.	.	.	.	.	.	.
8C/	.	8cc\	.	8ee\	.	.	.	.	.	.	.
8C/J	.	8ee\J	.	8gg\J	.	.	.	.	.	.	.
=24	=24	=24	=24	=24	=24	=24-	=24	=24	=24	=24	=24
*tremolo	*	*	*	*	*	*	*	*	*	*	*
8C/L	.	8ee\L	.	8ccc\L	.	.	.	2ryy	2ryy	2G/]	2g\
8C/	.	8ee\	.	8gg\	.	.	.	.	.	.	.
8C/	.	8dd\	.	8ff\	.	.	.	.	.	.	.
8C/J	.	8cc\J	.	8ee\J	.	.	.	.	.	.	.
=25	=25	=25	=25	=25	=25	=25-	=25	=25	=25	=25	=25
8GG/L	.	(>8cc\L	.	(>8ee\L	.	0r	.	2ryy	2ryy	4r	4r
8GG/	.	8b\J)	.	8dd\J)	.	.	.	.	.	.	.
8GG/	.	4b\	.	4dd\	.	.	.	.	.	[<4b\	[<4dd\
8GG/J	.	.	.	.	.	.	.	.	.	.	.
=26	=26	=26	=26	=26	=26	=26-	=26	=26	=26	=26	=26
8GG/L	.	4.b\	.	4.dd\	.	.	.	2ryy	2ryy	4b\]	4dd\]
8GG/	.	.	.	.	.	.	.	.	.	.	.
8GG/	.	.	.	.	.	.	.	.	.	4r	4r
8GG/J	.	8dd\	.	8ff\	.	.	.	.	.	.	.
=27	=27	=27	=27	=27	=27	=27-	=27	=27	=27	=27	=27
!!mixed beam:problem
!	!	!LO:TX:t=P:problem=mixed beam	!	!	!	!	!	!	!	!	!
8C/L	.	8cc\L	.	8ee\L	.	.	.	2ryy	2ryy	[>2G/	2g\
8C/	.	8e/	.	8cc\	.	.	.	.	.	.	.
8C/	.	8cc\	.	8ee\	.	.	.	.	.	.	.
8C/J	.	8ee\J	.	8gg\J	.	.	.	.	.	.	.
!	!	!	!	!	!	!	!	!	!	!	!LO:LB:g=original
=28	=28	=28	=28	=28	=28	=28-	=28	=28	=28	=28	=28
8C/L	.	8ee\L	.	8ccc\L	.	.	.	2ryy	2ryy	2G/]	2g\
8C/	.	8ee\	.	8gg\	.	.	.	.	.	.	.
8C/	.	8dd\	.	8ff\	.	.	.	.	.	.	.
8C/J	.	8cc\J	.	8ee\J	.	.	.	.	.	.	.
!	!	!	!	!LO:LB:g=original	!	!	!	!	!	!	!
=29	=29	=29	=29	=29	=29	=29-	=29	=29	=29	=29	=29
8GG/L	.	(>8cc\L	.	(>8ee\L	.	0r	.	2ryy	2ryy	4r	4r
8GG/	.	8b\J)	.	8dd\J)	.	.	.	.	.	.	.
8GG/	.	4b\	.	4dd\	.	.	.	.	.	[<4b\	[<4dd\
8GG/J	.	.	.	.	.	.	.	.	.	.	.
=30	=30	=30	=30	=30	=30	=30-	=30	=30	=30	=30	=30
8GG/L	.	4.b\	.	4.dd\	.	.	.	2ryy	2ryy	4b\]	4dd\]
8GG/	.	.	.	.	.	.	.	.	.	.	.
8GG/	.	.	.	.	.	.	.	.	.	4r	4r
8GG/J	.	8dd\	.	8ff\	.	.	.	.	.	.	.
*Xtremolo	*	*	*	*	*	*	*	*	*	*	*
!	!	!LO:LB:g=original	!	!	!	!	!	!	!	!	!
=31	=31	=31	=31	=31	=31	=31-	=31	=31	=31	=31	=31
8C/L	.	8cc\L	.	8ee\L	.	.	.	2ryy	2ryy	2r	2r
8C/	.	8ee\J	.	8ccc\J	.	.	.	.	.	.	.
8F/	.	16gg\LL	.	16bb\LL	.	.	.	.	.	.	.
.	.	16ff\	.	16aa\	.	.	.	.	.	.	.
8F/J	.	16ee\	.	16gg\	.	.	.	.	.	.	.
.	.	16dd\JJ	.	16ff\JJ	.	.	.	.	.	.	.
=32	=32	=32	=32	=32	=32	=32-	=32	=32	=32	=32	=32
!!mixed beam:problem
!LO:TX:t=P:problem=mixed beam	!	!	!	!	!	!	!	!	!	!	!
8G\L	.	4cc\	.	4ee\	.	.	.	2ryy	2ryy	4g\	4cc\
8G\	.	.	.	.	.	.	.	.	.	.	.
8GG/	.	4bt>\	.	4ddT>\	.	.	.	.	.	4g\	4bt>\
8GG/J	.	.	.	.	.	.	.	.	.	.	.
!LO:LB:g=original	!	!	!	!	!	!	!	!	!	!LO:LB:g=original	!
=33	=33	=33	=33	=33	=33	=33-	=33	=33	=33	=33	=33
!!mixed beam:problem
!LO:TX:t=P:problem=mixed beam	!	!	!	!	!	!	!	!	!	!	!
8C/L	.	4cc\	.	4cc\	.	1r	.	2ryy	2ryy	4G/	4g\
8c\	.	.	.	.	.	.	.	.	.	.	.
8G\	.	4G/ 4e	.	4c/ 4g 4cc 4ee	.	.	.	.	.	4G/	4g\
8E\J	.	.	.	.	.	.	.	.	.	.	.
=34	=34	=34	=34	=34	=34	=34-	=34	=34	=34	=34	=34
4C/	.	4G/ 4e	.	4c/ 4g 4cc 4ee	.	.	.	2ryy	2ryy	4G/	4g\
!LO:TX:t=P:problem=kreska z obustronną repetycją	!	!	!	!	!	!	!	!	!	!	!
4r	.	4r	.	8r	.	.	.	.	.	4r	4r
.	.	.	.	8G/	.	.	.	.	.	.	.
=35:|!;>	=35	=35	=35	=35	=35	=35	=35	=35	=35	=35	=35
*	*	*tremolo	*	*tremolo	*	*	*	*	*	*	*
!!mixed beam:problem
!LO:TX:t=P:problem=mixed beam	!	!LO:TX:a:t=Solo.	!LO:DY:b:rj:t=p&colon;	!LO:TX:a:t=Solo	!LO:DY:b:rj:t=p&colon;	!	!	!	!	!	!
8C/L	.	16c/LL	p	16c/LL	p	8.C/	Quo-	2ryy	2ryy	1r	1r
.	.	16c/	.	16c/	.	.	.	.	.	.	.
8c\	.	16c/	.	16c/	.	.	.	.	.	.	.
.	.	16c/	.	16c/	.	16C/	-ni-	.	.	.	.
8G\	.	16c/	.	16c/	.	8C/	-am	.	.	.	.
.	.	16c/	.	16c/	.	.	.	.	.	.	.
8E\J	.	16c/	.	16c/	.	8C/	tu	.	.	.	.
.	.	16c/JJ	.	16c/JJ	.	.	.	.	.	.	.
=36	=36	=36	=36	=36	=36	=36	=36	=36	=36	=36-	=36-
!!mixed beam:problem
!LO:TX:t=P:problem=mixed beam	!	!	!	!	!	!	!	!	!	!	!
8C/L	.	16c/LL	.	16e/LL	.	4.E\	So-	2ryy	2ryy	.	.
.	.	16c/	.	16e/	.	.	.	.	.	.	.
8c\	.	16c/	.	16e/	.	.	.	.	.	.	.
.	.	16c/	.	16e/	.	.	.	.	.	.	.
8G\	.	16c/	.	16e/	.	.	.	.	.	.	.
.	.	16c/	.	16e/	.	.	.	.	.	.	.
8E\J	.	16c/	.	16e/	.	8E\	-lus	.	.	.	.
.	.	16c/JJ	.	16e/JJ	.	.	.	.	.	.	.
*	*	*Xtremolo	*	*Xtremolo	*	*	*	*	*	*	*
=37	=37	=37	=37	=37	=37	=37	=37	=37	=37	=37-	=37-
8C\L	.	8g/L	.	8g/L	.	8G\L	So-	2ryy	2ryy	2r	2r
16F\L	.	16f/L	.	16f/L	.	16F\L	.	.	.	.	.
16E\JJ	.	16e/JJ	.	16e/JJ	.	16E\JJ	.	.	.	.	.
16F\LL	.	16f/LL	.	16f/LL	.	16F\LL	.	.	.	.	.
16G\	.	16g/	.	16g/	.	16G\	.	.	.	.	.
16A\	.	16a/	.	16a/	.	16A\	-lus	.	.	.	.
16B\JJ	.	16b/JJ	.	16b/JJ	.	16B\JJ	.	.	.	.	.
=38	=38	=38	=38	=38	=38	=38	=38	=38	=38	=38	=38
!!mixed beam:problem
!LO:TX:t=P:problem=mixed beam	!	!LO:TX:t=P:problem=mixed beam	!	!LO:TX:t=P:problem=mixed beam	!	!	!	!	!	!	!
8c\L	.	8cc\L	.	8cc\L	.	8c\	San-	2ryy	2ryy	8r	8r
8C/J	.	8c/J	.	8c/J	.	8C/	-ctus	.	.	8g\L	8g\L
4r	.	8r	.	8r	.	8r	.	.	.	8g\J	8g\J
.	.	8cc\	.	8ee\	.	8e\	tu	.	.	8r	8r
=39	=39	=39	=39	=39	=39	=39	=39	=39	=39	=39	=39
*tremolo	*	*tremolo	*	*	*	*	*	*	*	*	*
8GG/L	.	8b/L	.	8dd\L	.	8d\L	So-	2ryy	2ryy	2g\	2b\
8GG/	.	8b/	.	8b\	.	8B\J	.	.	.	.	.
8GG/	.	8b/	.	8g\	.	8G\	-lus	.	.	.	.
8GG/J	.	8b/J	.	8dd\J	.	8d\	tu	.	.	.	.
!	!	!	!	!LO:LB:g=original	!	!	!	!	!	!	!
=40	=40	=40	=40	=40	=40	=40	=40	=40	=40	=40	=40
!	!	!	!	!LO:TX:t=P:problem=mixed beam	!	!	!	!	!	!	!
8D\L	.	8a/L	.	8cc\L	.	8c\L	So-	2ryy	2ryy	2d/	2a\
8D\	.	8a/	.	8a\	.	8A\J	.	.	.	.	.
!	!	!	!	!	!	!LO:LB:g=original	!	!	!	!	!
8D\	.	8a/	.	8d/	.	8D\	-lus	.	.	.	.
8D\J	.	8a/J	.	8cc\J	.	8c\	tu	.	.	.	.
*Xtremolo	*	*Xtremolo	*	*	*	*	*	*	*	*	*
=41	=41	=41	=41	=41	=41	=41	=41	=41	=41	=41	=41
4G\	.	8g/L	.	8b\L	.	8B\L	So-	2ryy	2ryy	4g\	4b\
.	.	8a/	.	8cc\	.	8c\	.	.	.	.	.
8r	.	8b/	.	8dd\	.	8d\	.	.	.	4r	4r
8c\	.	8cc/J	.	8ee\J	.	8e\J	-lus	.	.	.	.
=42	=42	=42	=42	=42	=42	=42	=42	=42	=42	=42	=42
8d\L	.	8B/L	.	8g/L	.	16.G\	Do-	2ryy	2ryy	8r	8r
.	.	.	.	.	.	32G\	-mi-	.	.	.	.
8A\J	.	8A/J	.	8f#X/J	.	8F#X\	-nus	.	.	16d/LL	16a\LL
.	.	.	.	.	.	.	.	.	.	16d/JJ	16a\JJ
4D/	.	8r	.	8r	.	8r	.	.	.	4d/	4a\
.	.	8d/	.	8d/	.	8D\	tu	.	.	.	.
!	!	!LO:LB:g=original	!	!	!	!	!	!	!	!	!LO:LB:g=original
=43	=43	=43	=43	=43	=43	=43	=43	=43	=43	=43	=43
*tremolo	*	*tremolo	*	*tremolo	*	*	*	*	*	*	*
8D\L	.	8a/L	.	8cc\L	.	4c\	So-	2ryy	2ryy	0r	0r
8D\	.	8a/	.	8cc\	.	.	.	.	.	.	.
8D\	.	8a/	.	8cc\	.	8A\L	.	.	.	.	.
8D\J	.	8a/J	.	8cc\J	.	8F#X\J	-lus	.	.	.	.
!LO:LB:g=original	!	!	!	!	!	!	!	!	!	!	!
=44	=44	=44	=44	=44	=44	=44	=44	=44	=44	=44-	=44-
8GG/L	.	8g/L	.	8b\L	.	8.G\	Do-	2ryy	2ryy	.	.
8GG/	.	8g/	.	8b\	.	.	.	.	.	.	.
.	.	.	.	.	.	16B\	-mi-	.	.	.	.
8GG/	.	8g/	.	8b\	.	4d\	-nus	.	.	.	.
8GG/J	.	8g/J	.	8b\J	.	.	.	.	.	.	.
=45	=45	=45	=45	=45	=45	=45	=45	=45	=45	=45-	=45-
8D\L	.	8a/L	.	8cc\L	.	4c\	So-	2ryy	2ryy	.	.
8D\	.	8a/	.	8cc\	.	.	.	.	.	.	.
8D\	.	8a/	.	8cc\	.	8A\	-lus	.	.	.	.
8D\J	.	8a/J	.	8cc\J	.	8F#X\	al-	.	.	.	.
=46	=46	=46	=46	=46	=46	=46	=46	=46	=46	=46-	=46-
8GG/L	.	8g/L	.	8b\L	.	8.G\	-tiſ-	2ryy	2ryy	.	.
8GG/	.	8g/	.	8b\	.	.	.	.	.	.	.
.	.	.	.	.	.	16B\	-si-	.	.	.	.
8GG/	.	8g/	.	8b\	.	4d\	-mus	.	.	.	.
8GG/J	.	8g/J	.	8b\J	.	.	.	.	.	.	.
*Xtremolo	*	*Xtremolo	*	*Xtremolo	*	*	*	*	*	*	*
=47	=47	=47	=47	=47	=47	=47	=47	=47	=47	=47-	=47-
8C/L	.	16g/LL	.	16ee\LL	.	16e\LL	Je-	2ryy	2ryy	2r	2r
.	.	16e/	.	16cc\	.	16c\	.	.	.	.	.
8C/	.	16d/	.	16b\	.	16B\JJ	.	.	.	.	.
.	.	16c/JJ	.	16a\JJ	.	16A\	-su	.	.	.	.
!	!	!	!	!	!	!LO:LB:g=original	!	!	!	!	!
8D/	.	8B/L	.	8g/L	.	8G\L	Chri-	.	.	.	.
8D/J	.	8A/J	.	8f#Xt>/J	.	8F#Xt>\J	.	.	.	.	.
=48	=48	=48	=48	=48	=48	=48	=48	=48	=48	=48	=48
*	*	*tremolo	*	*tremolo	*	*	*	*	*	*	*
!!mixed beam:problem
!LO:TX:t=P:problem=mixed beam	!	!LO:TX:a:t=Tut&colon;	!LO:DY:b:rj:t=for.	!LO:TX:a:t=Tut&colon;	!LO:DY:b:rj:t=for.	!	!	!	!	!	!
8GG/L	.	16B/LL	f	16g/LL	f	4G\	-ste	2ryy	2ryy	8.B/L	8.g\L
.	.	16B/	.	16g/	.	.	.	.	.	.	.
8G\	.	16B/	.	16g/	.	.	.	.	.	.	.
.	.	16B/	.	16g/	.	.	.	.	.	16B/Jk	16g\Jk
8D\	.	16B/	.	16g/	.	4r	.	.	.	8B/L	8g\L
.	.	16B/	.	16g/	.	.	.	.	.	.	.
8BB\J	.	16B/	.	16g/	.	.	.	.	.	8B/J	8g\J
.	.	16B/JJ	.	16g/JJ	.	.	.	.	.	.	.
=49	=49	=49	=49	=49	=49	=49	=49	=49	=49	=49	=49
!!mixed beam:problem
!LO:TX:t=P:problem=mixed beam	!	!	!	!	!	!	!	!	!	!	!
8GG/L	.	16g/LL	.	16b\LL	.	0r	.	2ryy	2ryy	4.g\	4.b\
.	.	16g/	.	16b\	.	.	.	.	.	.	.
8G\	.	16g/	.	16b\	.	.	.	.	.	.	.
.	.	16g/	.	16b\	.	.	.	.	.	.	.
8D\	.	16g/	.	16b\	.	.	.	.	.	.	.
.	.	16g/	.	16b\	.	.	.	.	.	.	.
8BB\J	.	16g/	.	16b\	.	.	.	.	.	8g\	8b\
.	.	16g/JJ	.	16b\JJ	.	.	.	.	.	.	.
*	*	*Xtremolo	*	*Xtremolo	*	*	*	*	*	*	*
=50	=50	=50	=50	=50	=50	=50-	=50	=50	=50	=50	=50
8GG/L	.	8dd\L	.	8dd\L	.	.	.	2ryy	2ryy	4b\	4dd\
16C/L	.	16cc\L	.	16cc\L	.	.	.	.	.	.	.
16BB/JJ	.	16b\JJ	.	16b\JJ	.	.	.	.	.	.	.
16C/LL	.	16cc\LL	.	16cc\LL	.	.	.	.	.	4r	4r
16D/	.	16dd\	.	16dd\	.	.	.	.	.	.	.
16E/	.	16ee\	.	16ee\	.	.	.	.	.	.	.
16F#X/JJ	.	16ff#X\JJ	.	16ff#X\JJ	.	.	.	.	.	.	.
!	!	!	!	!	!	!	!	!	!	!LO:LB:g=original	!
=51	=51	=51	=51	=51	=51	=51-	=51	=51	=51	=51	=51
!!mixed beam:problem
!LO:TX:t=P:problem=mixed beam	!	!LO:TX:t=P:problem=mixed beam	!	!LO:TX:t=P:problem=mixed beam	!	!	!	!	!	!	!
8G\L	.	8gg\L	.	8gg\L	.	.	.	2ryy	2ryy	8r	8r
16GG/L	.	8g/J	.	8g/J	.	.	.	.	.	16g\LL	16b\LL
16AA/JJ	.	.	.	.	.	.	.	.	.	16g\JJ	16b\JJ
8BB/L	.	8r	.	8r	.	.	.	.	.	4g\	4b\
8GG/J	.	8gg\	.	8bb\	.	.	.	.	.	.	.
!	!	!	!	!LO:LB:g=original	!	!	!	!	!	!	!
=52	=52	=52	=52	=52	=52	=52-	=52	=52	=52	=52	=52
*tremolo	*	*tremolo	*	*	*	*	*	*	*	*	*
8D\L	.	8ff#X\L	.	8aa\L	.	.	.	2ryy	2ryy	0r	0r
8D\	.	8ff#X\	.	8ff#X\	.	.	.	.	.	.	.
8D\	.	8ff#X\	.	8dd\	.	.	.	.	.	.	.
8D\J	.	8ff#X\J	.	8aa\J	.	.	.	.	.	.	.
=53	=53	=53	=53	=53	=53	=53-	=53	=53	=53	=53-	=53-
8AA/L	.	8ee\L	.	8gg\L	.	0r	.	2ryy	2ryy	.	.
8AA/	.	8ee\	.	8ee\	.	.	.	.	.	.	.
8AA/	.	8ee\	.	8a\	.	.	.	.	.	.	.
8AA/J	.	8ee\J	.	8gg\J	.	.	.	.	.	.	.
*Xtremolo	*	*Xtremolo	*	*	*	*	*	*	*	*	*
=54	=54	=54	=54	=54	=54	=54-	=54	=54	=54	=54-	=54-
!	!	!LO:SIC:s=16ff#	!	!LO:SIC:s=16ff#	!	!	!	!	!	!	!
16D\LL	.	16ff\LL	.	16ff\LL	.	.	.	2ryy	2ryy	.	.
16d\	.	16dd\	.	16dd\	.	.	.	.	.	.	.
16c#X\	.	16cc#X\	.	16cc#X\	.	.	.	.	.	.	.
16d\JJ	.	16dd\JJ	.	16dd\JJ	.	.	.	.	.	.	.
!	!	!LO:LB:g=original	!	!	!	!	!	!	!	!	!
16A\LL	.	16a/LL	.	16a/LL	.	.	.	.	.	.	.
16G\	.	16g/	.	16g/	.	.	.	.	.	.	.
16F#X\	.	16f#X/	.	16f#X/	.	.	.	.	.	.	.
16E\JJ	.	16e/JJ	.	16e/JJ	.	.	.	.	.	.	.
!LO:LB:g=original	!	!	!	!	!	!	!	!	!	!	!
=55	=55	=55	=55	=55	=55	=55-	=55	=55	=55	=55-	=55-
8D\L	.	4d/	.	4d/	.	.	.	2ryy	2ryy	.	.
16D\L	.	.	.	.	.	.	.	.	.	.	.
16E\JJ	.	.	.	.	.	.	.	.	.	.	.
8F#X\L	.	8r	.	8r	.	.	.	.	.	.	.
8D\J	.	8a/	.	8cc\	.	.	.	.	.	.	.
=56	=56	=56	=56	=56	=56	=56-	=56	=56	=56	=56	=56
*tremolo	*	*tremolo	*	*	*	*	*	*	*	*	*
8C/L	.	8a/L	.	16ee\LL	.	.	.	2ryy	2ryy	8r	8r
.	.	.	.	16cc\	.	.	.	.	.	.	.
8C/	.	8a/	.	16b\	.	.	.	.	.	16d/LL	16a\LL
.	.	.	.	16cc\JJ	.	.	.	.	.	16d/JJ	16a\JJ
8C/	.	8a/	.	4ccT>\	.	.	.	.	.	4d/	8a\L
8C/J	.	8a/J	.	.	.	.	.	.	.	.	8a\J
=57	=57	=57	=57	=57	=57	=57-	=57	=57	=57	=57	=57
8GG/L	.	8g/L	.	16dd\LL	.	0r	.	2ryy	2ryy	8r	8r
.	.	.	.	16b\	.	.	.	.	.	.	.
8GG/	.	8g/	.	16a\	.	.	.	.	.	16g\LL	16b\LL
.	.	.	.	16b\JJ	.	.	.	.	.	16g\JJ	16b\JJ
8GG/	.	8g/	.	4bt>\	.	.	.	.	.	4g\	8b\L
8GG/J	.	8g/J	.	.	.	.	.	.	.	.	8b\J
*Xtremolo	*	*Xtremolo	*	*	*	*	*	*	*	*	*
=58	=58	=58	=58	=58	=58	=58-	=58	=58	=58	=58	=58
8C/L	.	16c/LL	.	16a/LL	.	.	.	2ryy	2ryy	4d/	4a\
.	.	16d/	.	16b/	.	.	.	.	.	.	.
8C/	.	16e/	.	16cc/	.	.	.	.	.	.	.
.	.	16c/JJ	.	16a/JJ	.	.	.	.	.	.	.
8D/	.	8B/L	.	8g/L	.	.	.	.	.	8g/L	8b\L
8D/J	.	8A/J	.	8f#Xt>/J	.	.	.	.	.	8d/J	8a\J
=59	=59	=59	=59	=59	=59	=59-	=59	=59	=59	=59	=59
*tremolo	*	*tremolo	*	*	*	*	*	*	*	*	*
8D/L	.	8a/L	.	16ee\LL	.	.	.	2ryy	2ryy	8r	8r
.	.	.	.	16cc\	.	.	.	.	.	.	.
8D/	.	8a/	.	16b\	.	.	.	.	.	16d/LL	16a\LL
.	.	.	.	16cc\JJ	.	.	.	.	.	16d/JJ	16a\JJ
8D/	.	8a/	.	4ccT>\	.	.	.	.	.	4d/	8a\L
8D/J	.	8a/J	.	.	.	.	.	.	.	.	8a\J
!	!	!	!	!	!	!	!	!	!	!	!LO:LB:g=original
=60	=60	=60	=60	=60	=60	=60-	=60	=60	=60	=60	=60
8GG/L	.	8g/L	.	16dd\LL	.	.	.	2ryy	2ryy	8r	8r
.	.	.	.	16b\	.	.	.	.	.	.	.
8GG/	.	8g/	.	16a\	.	.	.	.	.	16g\LL	16b\LL
.	.	.	.	16b\JJ	.	.	.	.	.	16g\JJ	16b\JJ
8GG/	.	8g/	.	4bt>\	.	.	.	.	.	4g\	8b\L
8GG/J	.	8g/J	.	.	.	.	.	.	.	.	8b\J
*Xtremolo	*	*Xtremolo	*	*	*	*	*	*	*	*	*
=61	=61	=61	=61	=61	=61	=61-	=61	=61	=61	=61	=61
8C/L	.	16c/LL	.	16a/LL	.	1r	.	2ryy	2ryy	4d/	4a\
.	.	16d/	.	16b/	.	.	.	.	.	.	.
8C/	.	16e/	.	16cc/	.	.	.	.	.	.	.
.	.	16c/JJ	.	16a/JJ	.	.	.	.	.	.	.
8D/	.	8B/L	.	8g/L	.	.	.	.	.	8g/L	8b\L
8D/J	.	8A/J	.	8f#X/J	.	.	.	.	.	8d/J	8a\J
=62	=62	=62	=62	=62	=62	=62-	=62	=62	=62	=62	=62
!!mixed beam:problem
!LO:TX:t=P:problem=mixed beam	!	!	!	!	!	!	!	!	!	!	!
8GG/L	.	4B/	.	4g/	.	.	.	2ryy	2ryy	4B/	4g\
8G\	.	.	.	.	.	.	.	.	.	.	.
8D\	.	4d/ 4b	.	4d/ 4b 4gg	.	.	.	.	.	4g\	4b\
8BB\J	.	.	.	.	.	.	.	.	.	.	.
=63	=63	=63	=63	=63	=63	=63-	=63	=63	=63	=63	=63
4GG/	.	4d/ 4b	.	4d/ 4b 4gg	.	2r	.	2ryy	2ryy	4g\	4b\
4r	.	4r	.	8r	.	.	.	.	.	4r	4r
.	.	.	.	8d/	.	.	.	.	.	.	.
!	!	!	!	!LO:LB:g=original	!	!	!	!	!	!	!
=64	=64	=64	=64	=64	=64	=64	=64	=64	=64	=64	=64
*	*	*tremolo	*	*tremolo	*	*	*	*	*	*	*
!!mixed beam:problem
!LO:TX:t=P:problem=mixed beam	!	!LO:TX:a:t=Solo	!LO:DY:b:rj:t=pia	!LO:TX:a:t=Solo	!LO:DY:b:B:t=pia	!	!	!	!	!LO:TX:a:t=3.	!
8GG/L	.	16B/LL	p	16g/LL	p	8.GG/	Quo-	2ryy	2ryy	2r	1r
.	.	16B/	.	16g/	.	.	.	.	.	.	.
8G\	.	16B/	.	16g/	.	.	.	.	.	.	.
.	.	16B/	.	16g/	.	16GG/	-ni-	.	.	.	.
8D\	.	16B/	.	16g/	.	8GG/	-am	.	.	.	.
.	.	16B/	.	16g/	.	.	.	.	.	.	.
8BB\J	.	16B/	.	16g/	.	8GG/	tu	.	.	.	.
.	.	16B/JJ	.	16g/JJ	.	.	.	.	.	.	.
=65	=65	=65	=65	=65	=65	=65	=65	=65	=65	=65-	=65-
!!mixed beam:problem
!LO:TX:t=P:problem=mixed beam	!	!	!	!	!	!	!	!	!	!	!
8GG/L	.	16g/LL	.	16b\LL	.	4.BB/	So-	2ryy	2ryy	2r	.
.	.	16g/	.	16b\	.	.	.	.	.	.	.
8G\	.	16g/	.	16b\	.	.	.	.	.	.	.
.	.	16g/	.	16b\	.	.	.	.	.	.	.
8D\	.	16g/	.	16b\	.	.	.	.	.	.	.
.	.	16g/	.	16b\	.	.	.	.	.	.	.
8BB\J	.	16g/	.	16b\	.	8BB/	-lus	.	.	.	.
.	.	16g/JJ	.	16b\JJ	.	.	.	.	.	.	.
*	*	*Xtremolo	*	*Xtremolo	*	*	*	*	*	*	*
!	!	!LO:LB:g=original	!	!	!	!	!	!	!	!	!
=66	=66	=66	=66	=66	=66	=66	=66	=66	=66	=66-	=66-
8GG/L	.	8dd\L	.	8dd\L	.	8D/L	So-	2ryy	2ryy	2r	2r
16C/L	.	16cc\L	.	16cc\L	.	16C/L	.	.	.	.	.
16BB/JJ	.	16b\JJ	.	16b\JJ	.	16BB/JJ	.	.	.	.	.
16C\LL	.	16cc\LL	.	16cc\LL	.	16C\LL	.	.	.	.	.
16D\	.	16dd\	.	16dd\	.	16D\	.	.	.	.	.
16E\	.	16ee\	.	16ee\	.	16E\	-lus	.	.	.	.
16F#X\JJ	.	16ff#X\JJ	.	16ff#X\JJ	.	16F#X\JJ	.	.	.	.	.
!LO:PB:g=original	!	!	!	!	!	!	!	!	!	!LO:LB:g=original	!
=67	=67	=67	=67	=67	=67	=67	=67	=67	=67	=67	=67
!!mixed beam:problem
!LO:TX:t=P:problem=mixed beam	!	!LO:TX:t=P:problem=mixed beam	!	!LO:TX:t=P:problem=mixed beam	!	!	!	!	!	!	!
8G\L	.	8gg\L	.	8gg\L	.	8G\	San-	2ryy	2ryy	8r	8r
16GG/L	.	8g/J	.	8g/J	.	8GG/	-ctus	.	.	16g\LL	16b\LL
16AA/JJ	.	.	.	.	.	.	.	.	.	16g\JJ	16b\JJ
8BB/L	.	4r	.	8r	.	8r	.	.	.	4g\	4b\
8GG/J	.	.	.	8d/	.	8D/	tu	.	.	.	.
!	!	!	!	!	!	!LO:PB:g=original	!	!	!	!	!
=68	=68	=68	=68	=68	=68	=68	=68	=68	=68	=68	=68
!	!	!	!	!	!	!	!	!	!	!LO:TX:a:t=29.	!
4GG/	.	4B/ 4d	.	8g/L	.	8G\L	So-	2ryy	2ryy	0r	0r
.	.	.	.	8b/	.	8B\	.	.	.	.	.
4r	.	4r	.	8dd/	.	8d\	.	.	.	.	.
.	.	.	.	8fn/J	.	8Fn\J	-lus	.	.	.	.
=69	=69	=69	=69	=69	=69	=69	=69	=69	=69	=69-	=69-
8r	.	8r	.	8fT>/L	.	8F\	San-	2ryy	2ryy	.	.
16C/LL	.	16e/LL	.	8e/J	.	8E\	-ctus	.	.	.	.
16D/JJ	.	16fn/JJ	.	.	.	.	.	.	.	.	.
8E\L	.	8g/L	.	8r	.	8r	.	.	.	.	.
8C\J	.	8e/J	.	8a/	.	8A\	tu	.	.	.	.
=70	=70	=70	=70	=70	=70	=70	=70	=70	=70	=70-	=70-
4AA/	.	4c#X/	.	8a\L	.	8A\L	So-	2ryy	2ryy	.	.
.	.	.	.	8cc#X\	.	8c#X\	.	.	.	.	.
4r	.	4r	.	8ee\	.	8e\	.	.	.	.	.
.	.	.	.	8g\J	.	8G\J	-lus	.	.	.	.
=71	=71	=71	=71	=71	=71	=71	=71	=71	=71	=71-	=71-
8r	.	8r	.	8g/L	.	16.G\	Do-	2ryy	2ryy	.	.
.	.	.	.	.	.	32G\	-mi-	.	.	.	.
16D/LL	.	16f#X/LL	.	8f#X/J	.	8F#X\	-nus	.	.	.	.
16E/JJ	.	16g/JJ	.	.	.	.	.	.	.	.	.
8F#X\L	.	8a/L	.	8r	.	8r	.	.	.	.	.
8D\J	.	8b/J	.	8dd\	.	8d\	tu	.	.	.	.
=72	=72	=72	=72	=72	=72	=72	=72	=72	=72	=72-	=72-
*tremolo	*	*tremolo	*	*tremolo	*	*	*	*	*	*	*
8C/L	.	8g/L	.	8ee\L	.	8e\L	So-	2ryy	2ryy	0r	0r
8C/	.	8g/	.	8ee\	.	8c\	.	.	.	.	.
8C/	.	8g/	.	8ee\	.	8G\	.	.	.	.	.
8C/J	.	8g/J	.	8ee\J	.	8E\J	.	.	.	.	.
=73	=73	=73	=73	=73	=73	=73	=73	=73	=73	=73-	=73-
8C/L	.	8g/L	.	8ee\L	.	8C\L	.	2ryy	2ryy	.	.
8C/	.	8g/	.	8ee\	.	16D\L	.	.	.	.	.
.	.	.	.	.	.	16E\JJ	.	.	.	.	.
8C/	.	8g/	.	8ee\	.	16F\LL	.	.	.	.	.
.	.	.	.	.	.	16G\	.	.	.	.	.
8C/J	.	8g/J	.	8ee\J	.	16A\	.	.	.	.	.
.	.	.	.	.	.	16B\JJ	.	.	.	.	.
=74	=74	=74	=74	=74	=74	=74	=74	=74	=74	=74-	=74-
*	*	*custos:b	*	*	*	*	*	*	*	*	*
8C/L	.	8g/L	.	8ee\L	.	8c\L	.	2ryy	2ryy	.	.
8C/	.	8g/	.	8ee\	.	8G\	.	.	.	.	.
8C/	.	8g/	.	8ee\	.	8E\	.	.	.	.	.
8C/J	.	8g/J	.	8ee\J	.	8G\J	-lus	.	.	.	.
*Xtremolo	*	*Xtremolo	*	*Xtremolo	*	*	*	*	*	*	*
!	!	!LO:PB:g=original	!	!	!	!LO:LB:g=original	!	!	!	!	!
=75	=75	=75	=75	=75	=75	=75	=75	=75	=75	=75-	=75-
!	!LO:DY:b:B:t=for.	!	!LO:DY:b:B:t=for.	!	!LO:DY:b:t=for.	!	!	!	!	!	!
8C\L	f	8g/L	f	8ee\L	f	8E\	San-	2ryy	2ryy	.	.
16c\L	.	16cc/L	.	16cc\L	.	8C/	-ctus	.	.	.	.
16B\JJ	.	16b/JJ	.	16b\JJ	.	.	.	.	.	.	.
16c\LL	.	16cc/LL	.	16cc/LL	.	4r	.	.	.	.	.
16G\	.	16g/	.	16g/	.	.	.	.	.	.	.
16E\	.	16e/	.	16e/	.	.	.	.	.	.	.
16C\JJ	.	16c/JJ	.	16c/JJ	.	.	.	.	.	.	.
!	!	!	!	!LO:LB:g=original	!	!	!	!	!	!	!
=76	=76	=76	=76	=76	=76	=76	=76	=76	=76	=76-	=76-
*tremolo	*	*tremolo	*	*tremolo	*	*	*	*	*	*	*
!	!LO:DY:a	!	!LO:DY:b:B:t=pia.	!	!LO:DY:b:B:t=pia	!	!	!	!	!	!
8GG/L	p	8b\L	p	8dd\L	p	8d\L	So-	2ryy	2ryy	0r	0r
8GG/	.	8b\	.	8dd\	.	8B\	.	.	.	.	.
8GG/	.	8b\	.	8dd\	.	8G\	.	.	.	.	.
8GG/J	.	8b\J	.	8dd\J	.	8D\J	.	.	.	.	.
=77	=77	=77	=77	=77	=77	=77	=77	=77	=77	=77-	=77-
8GG/L	.	8b/L	.	8dd\L	.	8GG/L	.	2ryy	2ryy	.	.
8GG/	.	8b/	.	8dd\	.	16AA/L	.	.	.	.	.
.	.	.	.	.	.	16BB/JJ	.	.	.	.	.
8GG/	.	8b/	.	8dd\	.	16C\LL	.	.	.	.	.
.	.	.	.	.	.	16D\	.	.	.	.	.
8GG/J	.	8b/J	.	8dd\J	.	16E\	.	.	.	.	.
.	.	.	.	.	.	16F#X\JJ	.	.	.	.	.
=78	=78	=78	=78	=78	=78	=78	=78	=78	=78	=78-	=78-
8GG/L	.	8b/L	.	8dd\L	.	8G\L	.	2ryy	2ryy	.	.
8GG/	.	8b/	.	8dd\	.	8D\	.	.	.	.	.
8GG/	.	8b/	.	8dd\	.	8BB\	-lus	.	.	.	.
8GG/J	.	8b/J	.	8dd\J	.	8D\J	.	.	.	.	.
*	*	*Xtremolo	*	*Xtremolo	*	*	*	*	*	*	*
=79	=79	=79	=79	=79	=79	=79	=79	=79	=79	=79-	=79-
!	!	!	!LO:DY:b:B:t=for.	!	!LO:DY:b:t=for&colon;	!	!	!	!	!	!
8GG/L	.	8b/L	f	8b/L	f	16.BB/	Do-	2ryy	2ryy	.	.
.	.	.	.	.	.	32BB/	-mi-	.	.	.	.
16G/L	.	16g/L	.	16g/L	.	8GG/	-nus	.	.	.	.
16F#X/JJ	.	16f#X/JJ	.	16f#X/JJ	.	.	.	.	.	.	.
16G/LL	.	16g/LL	.	16g/LL	.	8r	.	.	.	.	.
16D/	.	16d/	.	16d/	.	.	.	.	.	.	.
16BB/	.	16B/	.	16B/	.	8D\	tu	.	.	.	.
16GG/JJ	.	16G/JJ	.	16G/JJ	.	.	.	.	.	.	.
=80	=80	=80	=80	=80	=80	=80	=80	=80	=80	=80-	=80-
*	*	*tremolo	*	*tremolo	*	*	*	*	*	*	*
!	!LO:DY:a:t=pia.	!LO:SIC:s=2a	!LO:DY:b:B:t=pia	!	!LO:DY:b:t=pia	!	!	!	!	!	!
8D\L	p	8g/L	p	8cc\L	p	8c\L	So-	2ryy	2ryy	0r	0r
8D\	.	8g/	.	8cc\	.	8A\	.	.	.	.	.
8D\	.	8g/	.	8cc\	.	8F#X\	.	.	.	.	.
8D\J	.	8g/J	.	8cc\J	.	8A\J	-lus	.	.	.	.
=81	=81	=81	=81	=81	=81	=81	=81	=81	=81	=81-	=81-
8D\L	.	8a/L	.	8cc\L	.	8F#X\L	San-	2ryy	2ryy	.	.
8D\	.	8a/	.	8cc\	.	8D\J	-ctus	.	.	.	.
8D\	.	8a/	.	8cc\	.	8r	.	.	.	.	.
8D\J	.	8a/J	.	8cc\J	.	8D\	tu	.	.	.	.
!	!	!	!	!	!	!LO:LB:g=original	!	!	!	!	!
=82	=82	=82	=82	=82	=82	=82	=82	=82	=82	=82-	=82-
8G\L	.	8b\L	.	8dd\L	.	8d\L	So-	2ryy	2ryy	.	.
8G\	.	8b\	.	8dd\	.	8B\	.	.	.	.	.
8G\	.	8b\	.	8dd\	.	8G\	.	.	.	.	.
8G\J	.	8b\J	.	8dd\J	.	8B\J	-lus	.	.	.	.
=83	=83	=83	=83	=83	=83	=83	=83	=83	=83	=83-	=83-
8G\L	.	8b\L	.	8dd\L	.	16.G\	Do-	2ryy	2ryy	.	.
.	.	.	.	.	.	32G\	-mi-	.	.	.	.
8G\	.	8b\	.	8dd\	.	8D\	-nus	.	.	.	.
8G\	.	8b\	.	8dd\	.	8r	.	.	.	.	.
8G\J	.	8b\J	.	8dd\J	.	8D\	tu	.	.	.	.
=84	=84	=84	=84	=84	=84	=84	=84	=84	=84	=84-	=84-
8D\L	.	8a/L	.	8cc\L	.	8c\L	So-	2ryy	2ryy	0r	0r
8D\	.	8a/	.	8cc\	.	8A\J	.	.	.	.	.
8D\	.	8a/	.	8cc\	.	8F#X\	-lus	.	.	.	.
8D\J	.	8a/J	.	8cc\J	.	8A\	al-	.	.	.	.
=85	=85	=85	=85	=85	=85	=85	=85	=85	=85	=85-	=85-
8D\L	.	8a/L	.	8cc\L	.	8D\L	-tiſ-	2ryy	2ryy	.	.
!	!	!	!	!	!	!LO:SIC:s=8F#	!	!	!	!	!
8D\	.	8a/	.	8cc\	.	8F\J	.	.	.	.	.
8D\	.	8a/	.	8cc\	.	8A\	-si-	.	.	.	.
8D\J	.	8a/J	.	8cc\J	.	8c\	-mus	.	.	.	.
=86	=86	=86	=86	=86	=86	=86	=86	=86	=86	=86-	=86-
8G\L	.	8b\L	.	8dd\L	.	8d\L	So-	2ryy	2ryy	.	.
8G\	.	8b\	.	8dd\	.	8B\J	.	.	.	.	.
8G\	.	8b\	.	8dd\	.	8G\	-lus	.	.	.	.
8G\J	.	8b\J	.	8dd\J	.	8B\	al-	.	.	.	.
=87	=87	=87	=87	=87	=87	=87	=87	=87	=87	=87-	=87-
8G\L	.	8b\L	.	8dd\L	.	8D\L	-tiſ-	2ryy	2ryy	.	.
8G\	.	8b\	.	8dd\	.	8G\J	.	.	.	.	.
8G\	.	8b\	.	8dd\	.	8B\	-si-	.	.	.	.
8G\J	.	8b\J	.	8dd\J	.	8d\	-mus	.	.	.	.
!	!	!LO:LB:g=original	!	!	!	!	!	!	!	!	!
=88	=88	=88	=88	=88	=88	=88	=88	=88	=88	=88-	=88-
8D\L	.	8a/L	.	8cc\L	.	8c\L	So-	2ryy	2ryy	0r	0r
8D\	.	8a/	.	8cc\	.	8A\J	.	.	.	.	.
8D\	.	8a/	.	8cc\	.	8F#X\	-lus	.	.	.	.
8D\J	.	8a/J	.	8cc\J	.	8A\	al-	.	.	.	.
!	!	!	!	!	!	!LO:LB:g=original	!	!	!	!	!
=89	=89	=89	=89	=89	=89	=89	=89	=89	=89	=89-	=89-
8D\L	.	8a/L	.	8cc\L	.	8D\L	-tiſ-	2ryy	2ryy	.	.
!	!	!	!	!	!	!LO:SIC:s=8F#	!	!	!	!	!
8D\	.	8a/	.	8cc\	.	8F\J	.	.	.	.	.
8D\	.	8a/	.	8cc\	.	8A\	-si-	.	.	.	.
8D\J	.	8a/J	.	8cc\J	.	8c\	-mus	.	.	.	.
*Xtremolo	*	*Xtremolo	*	*Xtremolo	*	*	*	*	*	*	*
=90	=90	=90	=90	=90	=90	=90	=90	=90	=90	=90-	=90-
8G\	.	8g/L	.	8b\L	.	8B\L	Je-	2ryy	2ryy	.	.
8ryy	.	8a/	.	8cc\	.	8c\	.	.	.	.	.
8r	.	8b/	.	8dd\	.	8d\	.	.	.	.	.
8c\	.	8cc/J	.	8ee\J	.	8e\J	-su	.	.	.	.
=91	=91	=91	=91	=91	=91	=91	=91	=91	=91	=91-	=91-
*	*	*tremolo	*	*	*	*	*	*	*	*	*
!!mixed beam:problem
!LO:TX:t=P:problem=mixed beam	!	!	!	!	!	!	!	!	!	!	!
8d\L	.	16g/LL	.	16cc/LL	.	16c\LL	Chriſ-	2ryy	2ryy	.	.
.	.	16g/	.	16b/	.	16B\	.	.	.	.	.
8d\	.	16g/	.	16a/	.	16A\	.	.	.	.	.
.	.	16g/JJ	.	16g/JJ	.	16G\JJ	.	.	.	.	.
*	*	*	*	*tremolo	*	*	*	*	*	*	*
8D/	.	16f#X/LL	.	16a/LL	.	4AT>\	.	.	.	.	.
.	.	16f#X/	.	16a/	.	.	.	.	.	.	.
8D/J	.	16f#X/	.	16a/	.	.	.	.	.	.	.
.	.	16f#X/JJ	.	16a/JJ	.	.	.	.	.	.	.
*	*	*Xtremolo	*	*Xtremolo	*	*	*	*	*	*	*
!LO:LB:g=original	!	!	!	!	!	!	!	!	!	!	!
=92	=92	=92	=92	=92	=92	=92	=92	=92	=92	=92-	=92-
8G\L	.	4g/	.	4g/	.	4G\	-te	2ryy	2ryy	0r	2r
16G\L	.	.	.	.	.	.	.	.	.	.	.
16A\JJ	.	.	.	.	.	.	.	.	.	.	.
16G\LL	.	4r	.	4r	.	4r	.	.	.	.	.
16Fn\	.	.	.	.	.	.	.	.	.	.	.
16E\	.	.	.	.	.	.	.	.	.	.	.
16D\JJ	.	.	.	.	.	.	.	.	.	.	.
=93	=93	=93	=93	=93	=93	=93	=93	=93	=93	=93-	=93
!LO:TX:t=P:problem=brak pauz	!	!LO:TX:t=P:problem=brak pauz	!	!LO:TX:t=P:problem=brak oznaczonej liczby pauzujących taktów	!	!LO:TX:t=P:problem=brak pauz	!	!	!	!	!LO:TX:t=P:problem=brak oznaczonych pauz
2ryy	.	2ryy	.	2ryy	.	2ryy	.	2ryy	2ryy	.	2ryy
=94	=94	=94	=94	=94	=94	=94	=94	=94	=94	=94-	=94
2ryy	.	2ryy	.	2ryy	.	2ryy	.	2ryy	2ryy	.	2ryy
=95	=95	=95	=95	=95	=95	=95	=95	=95	=95	=95-	=95
2ryy	.	2ryy	.	2ryy	.	2ryy	.	2ryy	2ryy	.	2ryy
=96	=96	=96	=96	=96	=96	=96	=96	=96	=96	=96-	=96
2ryy	.	2ryy	.	2ryy	.	2ryy	.	2ryy	2ryy	2r	2ryy
=97	=97	=97	=97	=97	=97	=97	=97	=97	=97	=97-	=97
!	!	!	!	!	!	!	!	!	!	!LO:TX:t=P:problem=brak oznaczonej pauzy	!
2ryy	.	2ryy	.	2ryy	.	2ryy	.	2ryy	2ryy	2ryy	2ryy
!	!	!	!	!LO:LB:g=original	!	!	!	!	!	!	!
=98	=98	=98	=98	=98	=98	=98	=98	=98	=98	=98	=98
*	*	*tremolo	*	*tremolo	*	*	*	*	*	*	*
!!mixed beam:problem
!LO:TX:t=P:problem=mixed beam	!LO:DY:b:B:t=p&colon;	!	!	!	!	!	!	!	!	!	!
8C/L	p	16c/LL	.	16c/LL	.	8.C/	Quo-	2ryy	2ryy	8.G/L	8.g\L
.	.	16c/	.	16c/	.	.	.	.	.	.	.
8c\	.	16c/	.	16c/	.	.	.	.	.	.	.
.	.	16c/	.	16c/	.	16C/	-ni-	.	.	16G/Jk	16g\Jk
8G\	.	16c/	.	16c/	.	8C/	-am	.	.	8G/L	8g\L
.	.	16c/	.	16c/	.	.	.	.	.	.	.
8E\J	.	16c/	.	16c/	.	8C/	tu	.	.	8G/J	8g\J
.	.	16c/JJ	.	16c/JJ	.	.	.	.	.	.	.
=99	=99	=99	=99	=99	=99	=99	=99	=99	=99	=99	=99
!!mixed beam:problem
!LO:TX:t=P:problem=mixed beam	!	!	!	!	!	!	!	!	!	!	!
8C/L	.	16c/LL	.	16e/LL	.	4.E\	So-	2ryy	2ryy	4.G/	4.g\
.	.	16c/	.	16e/	.	.	.	.	.	.	.
8c\	.	16c/	.	16e/	.	.	.	.	.	.	.
.	.	16c/	.	16e/	.	.	.	.	.	.	.
8G\	.	16c/	.	16e/	.	.	.	.	.	.	.
.	.	16c/	.	16e/	.	.	.	.	.	.	.
8E\J	.	16c/	.	16e/	.	8E\	-lus	.	.	8G/	8g\
.	.	16c/JJ	.	16e/JJ	.	.	.	.	.	.	.
*	*	*	*	*Xtremolo	*	*	*	*	*	*	*
*	*	*Xtremolo	*	*	*	*	*	*	*	*	*
=100	=100	=100	=100	=100	=100	=100	=100	=100	=100	=100	=100
8C/L	.	8g/L	.	8g/L	.	8G\L	So-	2ryy	2ryy	4G/	4g\
16F/L	.	16f/L	.	16f/L	.	16F\L	.	.	.	.	.
16E/JJ	.	16e/JJ	.	16e/JJ	.	16E\JJ	.	.	.	.	.
16F\LL	.	16f/LL	.	16f/LL	.	16F\LL	.	.	.	4r	4r
16G\	.	16g/	.	16g/	.	16G\	.	.	.	.	.
16A\	.	16a/	.	16a/	.	16A\	-lus	.	.	.	.
16B\JJ	.	16b/JJ	.	16b/JJ	.	16B\JJ	.	.	.	.	.
!	!	!	!	!	!	!LO:LB:g=original	!	!	!	!	!
=101	=101	=101	=101	=101	=101	=101	=101	=101	=101	=101	=101
!!mixed beam:problem
!LO:TX:t=P:problem=mixed beam	!	!LO:TX:t=P:problem=mixed beam	!	!LO:TX:t=P:problem=mixed beam	!	!	!	!	!	!	!
8c\L	.	8cc\L	.	8cc\L	.	16.c\	Do-	2ryy	2ryy	8r	8r
.	.	.	.	.	.	32C/	-mi-	.	.	.	.
8C/	.	8c/J	.	8c/J	.	8C/	-nus	.	.	8G/	8g\
8C/	.	8r	.	8r	.	8r	.	.	.	4G/	4g\
8c\J	.	8cc\	.	8cc\	.	8c\	tu	.	.	.	.
!	!	!	!	!	!	!	!	!	!	!	!LO:LB:g=original
=102	=102	=102	=102	=102	=102	=102	=102	=102	=102	=102	=102
(>8B\L	.	8b\L	.	8b/L	.	8B\L	So-	2ryy	2ryy	0r	0r
8c\)	.	8cc\	.	8cc/	.	8c\J	.	.	.	.	.
(>8G\	.	8g\	.	8g/	.	8G\	-lus	.	.	.	.
8A\J)	.	8a\J	.	8a/J	.	8A\	Al-	.	.	.	.
=103	=103	=103	=103	=103	=103	=103	=103	=103	=103	=103-	=103-
(>8F\L	.	8f/L	.	8f/L	.	8F\L	-tiſ-	2ryy	2ryy	.	.
8G\)	.	8g/	.	8g/	.	8G\J	.	.	.	.	.
(>8E\	.	8e/	.	8e/	.	8E\	-si-	.	.	.	.
!LO:SIC:s=8F	!	!	!	!	!	!	!	!	!	!	!
8G\J)	.	8f/J	.	8f/J	.	8F\	-mus	.	.	.	.
=104	=104	=104	=104	=104	=104	=104	=104	=104	=104	=104-	=104-
!!mixed beam:problem
!LO:TX:t=P:problem=mixed beam	!	!	!	!	!	!	!	!	!	!	!
8E\L	.	16f/LL	.	16f/LL	.	16F\LL	Je-	2ryy	2ryy	.	.
.	.	16e/	.	16e/	.	16E\	.	.	.	.	.
8C\	.	16d/	.	16d/	.	16D\JJ	.	.	.	.	.
.	.	16c/JJ	.	16c/JJ	.	16C/	-su	.	.	.	.
!	!	!LO:LB:g=original	!	!	!	!	!	!	!	!	!
8G\	.	8g/L	.	8g/L	.	8G\	Chri-	.	.	.	.
8GG/J	.	8G/J	.	8G/J	.	8GG/	.	.	.	.	.
=105	=105	=105	=105	=105	=105	=105	=105	=105	=105	=105-	=105-
!!mixed beam:problem
!LO:TX:t=P:problem=mixed beam	!LO:DY:b:B:t=for.	!	!	!	!	!	!	!	!	!	!
8C/L	f	8c/	.	8c/	.	4C/	-ste	2ryy	2ryy	.	.
16c\L	.	4cc\	.	4ee\	.	.	.	.	.	.	.
16d\JJ	.	.	.	.	.	.	.	.	.	.	.
8e\L	.	.	.	.	.	4r	.	.	.	.	.
8c\J	.	[>8cc\	.	[<8ee\	.	.	.	.	.	.	.
!LO:LB:g=original	!	!	!	!	!	!	!	!	!	!	!
=106	=106	=106	=106	=106	=106	=106	=106	=106	=106	=106-	=106-
8A\L	.	8cc\]	.	8ee\]	.	2r	.	2ryy	2ryy	1r	1r
16A\L	.	4cc\	.	4ee\	.	.	.	.	.	.	.
16B\JJ	.	.	.	.	.	.	.	.	.	.	.
8c\L	.	.	.	.	.	.	.	.	.	.	.
8A\J	.	[>8cc\	.	[<8ee\	.	.	.	.	.	.	.
=107	=107	=107	=107	=107	=107	=107	=107	=107	=107	=107-	=107-
8F#X\L	.	8cc\]	.	8ee\]	.	8r	.	2ryy	2ryy	.	.
16F#\L	.	4cc\	.	4ee\	.	4c\	Je-	.	.	.	.
16G\JJ	.	.	.	.	.	.	.	.	.	.	.
8A\L	.	.	.	.	.	.	.	.	.	.	.
8F#\J	.	8cc\	.	8ee\	.	8c;>\	-su	.	.	.	.
!	!	!	!	!	!	!LO:LB:g=original	!	!	!	!	!
=108	=108	=108	=108	=108	=108	=108	=108	=108	=108	=108	=108
*M4/4	*	*M4/4	*	*M4/4	*	*M4/4	*	*M4/4	*M4/4	*M4/4	*M4/4
*met(c)	*	*met(c)	*	*met(c)	*	*met(c)	*	*met(c)	*met(c)	*met(c)	*met(c)
!LO:TX:t=P:problem=zmiana metrum nieoznaczona	!	!LO:TX:t=P:problem=zmiana metrum nieoznaczona	!	!LO:TX:t=P:problem=zmiana metrum nieoznaczona	!	!	!	!	!	!	!LO:TX:t=P:problem=zmiana metrum nieoznaczona
!LO:TX:a:t=Da Capo	!	!LO:TX:a:t=Da Capo	!	!LO:TX:a:t=Da Cap	!	!LO:TX:t=P:problem=zmiana metrum nieoznaczona	!	!	!	!LO:TX:a:t=Da Capo	!LO:TX:a:t=Da Capo.
2G;>\	.	2b;>\	.	2dd;>\	.	16c\LL	Je-	1ryy	1ryy	2G;>/	2g;>\
.	.	.	.	.	.	16B\	.	.	.	.	.
.	.	.	.	.	.	16A\	.	.	.	.	.
.	.	.	.	.	.	16G\JJ	.	.	.	.	.
.	.	.	.	.	.	16A\LL	.	.	.	.	.
.	.	.	.	.	.	16G\	.	.	.	.	.
.	.	.	.	.	.	16F\	.	.	.	.	.
.	.	.	.	.	.	16E\JJ	.	.	.	.	.
2ryy	.	2ryy	.	2ryy	.	16F\LL	.	.	.	2ryy	2ryy
.	.	.	.	.	.	16E\	.	.	.	.	.
.	.	.	.	.	.	16D\	.	.	.	.	.
.	.	.	.	.	.	16C\JJ	.	.	.	.	.
.	.	.	.	.	.	16D/LL	.	.	.	.	.
.	.	.	.	.	.	16C/	.	.	.	.	.
.	.	.	.	.	.	16BB/	.	.	.	.	.
.	.	.	.	.	.	16AA/JJ	.	.	.	.	.
=109	=109	=109	=109	=109	=109	=109	=109	=109	=109	=109	=109
1ryy	.	1ryy	.	1ryy	.	8.GG/	.	1ryy	1ryy	1ryy	1ryy
.	.	.	.	.	.	16D\	-ſu	.	.	.	.
*	*	*	*	*	*	*2\right	*	*	*	*	*
.	.	.	.	.	.	2DT;>\	Chris-	.	.	.	.
.	.	.	.	.	.	4C/	-te	.	.	.	.
=110	=110	=110	=110	=110	=110	=110	=110	=110	=110	=110	=110
1ryy	.	1ryy	.	1ryy	.	00r	.	1ryy	1ryy	1ryy	1ryy
=111	=111	=111	=111	=111	=111	=111-	=111	=111	=111	=111	=111
1ryy	.	1ryy	.	1ryy	.	.	.	1ryy	1ryy	1ryy	1ryy
=112	=112	=112	=112	=112	=112	=112-	=112	=112	=112	=112	=112
1ryy	.	1ryy	.	1ryy	.	.	.	1ryy	1ryy	1ryy	1ryy
=113	=113	=113	=113	=113	=113	=113-	=113	=113	=113	=113	=113
1ryy	.	1ryy	.	1ryy	.	.	.	1ryy	1ryy	1ryy	1ryy
=114	=114	=114	=114	=114	=114	=114-	=114	=114	=114	=114	=114
1ryy	.	1ryy	.	1ryy	.	00r	.	1ryy	1ryy	1ryy	1ryy
=115	=115	=115	=115	=115	=115	=115-	=115	=115	=115	=115	=115
1ryy	.	1ryy	.	1ryy	.	.	.	1ryy	1ryy	1ryy	1ryy
=116	=116	=116	=116	=116	=116	=116-	=116	=116	=116	=116	=116
1ryy	.	1ryy	.	1ryy	.	.	.	1ryy	1ryy	1ryy	1ryy
=117	=117	=117	=117	=117	=117	=117-	=117	=117	=117	=117	=117
1ryy	.	1ryy	.	1ryy	.	.	.	1ryy	1ryy	1ryy	1ryy
=118	=118	=118	=118	=118	=118	=118-	=118	=118	=118	=118	=118
1ryy	.	1ryy	.	1ryy	.	00r	.	1ryy	1ryy	1ryy	1ryy
=119	=119	=119	=119	=119	=119	=119-	=119	=119	=119	=119	=119
1ryy	.	1ryy	.	1ryy	.	.	.	1ryy	1ryy	1ryy	1ryy
=120	=120	=120	=120	=120	=120	=120-	=120	=120	=120	=120	=120
1ryy	.	1ryy	.	1ryy	.	.	.	1ryy	1ryy	1ryy	1ryy
=121	=121	=121	=121	=121	=121	=121-	=121	=121	=121	=121	=121
1ryy	.	1ryy	.	1ryy	.	.	.	1ryy	1ryy	1ryy	1ryy
=122	=122	=122	=122	=122	=122	=122-	=122	=122	=122	=122	=122
1ryy	.	1ryy	.	1ryy	.	00r	.	1ryy	1ryy	1ryy	1ryy
=123	=123	=123	=123	=123	=123	=123-	=123	=123	=123	=123	=123
1ryy	.	1ryy	.	1ryy	.	.	.	1ryy	1ryy	1ryy	1ryy
=124	=124	=124	=124	=124	=124	=124-	=124	=124	=124	=124	=124
1ryy	.	1ryy	.	1ryy	.	.	.	1ryy	1ryy	1ryy	1ryy
=125	=125	=125	=125	=125	=125	=125-	=125	=125	=125	=125	=125
1ryy	.	1ryy	.	1ryy	.	.	.	1ryy	1ryy	1ryy	1ryy
=126	=126	=126	=126	=126	=126	=126-	=126	=126	=126	=126	=126
1ryy	.	1ryy	.	1ryy	.	00r	.	1ryy	1ryy	1ryy	1ryy
=127	=127	=127	=127	=127	=127	=127-	=127	=127	=127	=127	=127
1ryy	.	1ryy	.	1ryy	.	.	.	1ryy	1ryy	1ryy	1ryy
=128	=128	=128	=128	=128	=128	=128-	=128	=128	=128	=128	=128
1ryy	.	1ryy	.	1ryy	.	.	.	1ryy	1ryy	1ryy	1ryy
=129	=129	=129	=129	=129	=129	=129-	=129	=129	=129	=129	=129
1ryy	.	1ryy	.	1ryy	.	.	.	1ryy	1ryy	1ryy	1ryy
=130	=130	=130	=130	=130	=130	=130-	=130	=130	=130	=130	=130
1ryy	.	1ryy	.	1ryy	.	00r	.	1ryy	1ryy	1ryy	1ryy
=131	=131	=131	=131	=131	=131	=131-	=131	=131	=131	=131	=131
1ryy	.	1ryy	.	1ryy	.	.	.	1ryy	1ryy	1ryy	1ryy
=132	=132	=132	=132	=132	=132	=132-	=132	=132	=132	=132	=132
1ryy	.	1ryy	.	1ryy	.	.	.	1ryy	1ryy	1ryy	1ryy
=133	=133	=133	=133	=133	=133	=133-	=133	=133	=133	=133	=133
1ryy	.	1ryy	.	1ryy	.	.	.	1ryy	1ryy	1ryy	1ryy
=134	=134	=134	=134	=134	=134	=134-	=134	=134	=134	=134	=134
1ryy	.	1ryy	.	1ryy	.	00r	.	1ryy	1ryy	1ryy	1ryy
=135	=135	=135	=135	=135	=135	=135-	=135	=135	=135	=135	=135
1ryy	.	1ryy	.	1ryy	.	.	.	1ryy	1ryy	1ryy	1ryy
=136	=136	=136	=136	=136	=136	=136-	=136	=136	=136	=136	=136
1ryy	.	1ryy	.	1ryy	.	.	.	1ryy	1ryy	1ryy	1ryy
=137	=137	=137	=137	=137	=137	=137-	=137	=137	=137	=137	=137
1ryy	.	1ryy	.	1ryy	.	.	.	1ryy	1ryy	1ryy	1ryy
=138	=138	=138	=138	=138	=138	=138-	=138	=138	=138	=138	=138
1ryy	.	1ryy	.	1ryy	.	00r	.	1ryy	1ryy	1ryy	1ryy
=139	=139	=139	=139	=139	=139	=139-	=139	=139	=139	=139	=139
1ryy	.	1ryy	.	1ryy	.	.	.	1ryy	1ryy	1ryy	1ryy
=140	=140	=140	=140	=140	=140	=140-	=140	=140	=140	=140	=140
1ryy	.	1ryy	.	1ryy	.	.	.	1ryy	1ryy	1ryy	1ryy
=141	=141	=141	=141	=141	=141	=141-	=141	=141	=141	=141	=141
1ryy	.	1ryy	.	1ryy	.	.	.	1ryy	1ryy	1ryy	1ryy
=142	=142	=142	=142	=142	=142	=142-	=142	=142	=142	=142	=142
1ryy	.	1ryy	.	1ryy	.	1r	.	1ryy	1ryy	1ryy	1ryy
==	==	==	==	==	==	==	==	==	==	==	==
*-	*-	*-	*-	*-	*-	*-	*-	*-	*-	*-	*-
!!!system-decoration: [(g1)][(g2)][(g3)]g4
!!!RDF**kern: > = above
!!!RDF**kern: < = below
!!!ENC: Kamil Watkowski
!!!END: 2020-08-19
!!!EED: Jędrzej Mróz
!!!ESR: 2021-11-08
